X: 221
P: AABBAACC
M: C|
L: 1/8
K: D
V: 1
|:\
|:\
|:\
(f/g/a) a>b a>baf | g/g/g g2 g>aba |\
(f/g/a) a>b a>baf | gafg Te2Hd2 :|
V: 2 clef=bass middle=d
|:\
d2d2 d2d2 | e2e2 e2e2 |\
d2d2 d2d2 | g2a2 a2d2 :|\
|:\
d2d2 d2d2 | g2g2 g2g2 |\
d2d2 d2d2 |
g2a2 a2d2 :|\
|:\
d'2d'2 d'2d'2 | e'2e'2 e'2e'2 |\
d'2d'2 d'2d'2 | g2a2 a2d2 :|

